Dominus_Dark_Funeral/scalable/apps/empathy.svg

<svg xmlns="http://www.w3.org/2000/svg" xmlns:xlink="http://www.w3.org/1999/xlink" width="48" height="48"><defs><linearGradient id="e"><stop offset="0"/><stop offset="1" stop-opacity="0"/></linearGradient><linearGradient id="d"><stop offset="0" stop-color="#d5f6ff"/><stop offset="1" stop-color="#214478"/></linearGradient><linearGradient id="a"><stop offset="0" stop-color="#afc6e9"/><stop offset="1" stop-color="#afe9c6" stop-opacity=".06"/></linearGradient><linearGradient id="c"><stop offset="0" stop-color="#afc6e9"/><stop offset="1" stop-color="#214478"/></linearGradient><linearGradient xlink:href="#a" id="g" x1="4.3" y1="-.15" x2="4.3" y2="15.84" gradientUnits="userSpaceOnUse" gradientTransform="translate(1.22 .52) scale(.94874)"/><linearGradient xlink:href="#c" id="b" gradientUnits="userSpaceOnUse" gradientTransform="translate(60)" x1="24.86" y1=".43" x2="8.39" y2="43.59"/><radialGradient xlink:href="#d" id="f" cx="49.08" cy="24.33" fx="49.08" fy="24.33" r="20.2" gradientTransform="matrix(1 0 0 1.16394 -20 -3.91)" gradientUnits="userSpaceOnUse"/><linearGradient xlink:href="#e" id="h" gradientUnits="userSpaceOnUse" x1="15.54" y1="20.59" x2="47.93" y2="33.11"/></defs><path d="M24 .35c-5.83 0-10.52.95-13.93 2.84C5.97 5.45 3.8 9.07 3.8 13.64c0 6.17 5.8 14.4 7.58 16.77a48.13 48.13 0 0 0 6.25 6.96c2.54 2.25 4.57 3.3 6.37 3.3.27 0 .58.08.86.03v6.67c1.6-.31 3.35-1.34 5.5-3.6 2-2.07 4.23-4.96 6.26-8.15 1.78-2.8 7.58-12.44 7.58-19.67 0-5.37-2.16-9.61-6.26-12.27C34.7 1.59 30.26.56 24.86.44V.43c-.31 0-.54-.08-.86-.08z" fill="url(#f)"/><path d="M42.31 10.75c-.2-.64-.37-1.3-.67-1.88A12.25 12.25 0 0 0 37.21 4c-.76-.5-1.6-.93-2.5-1.3a20.4 20.4 0 0 0-2.93-.94c-2.08-.5-4.41-.78-6.97-.83V.92c-.3 0-.52-.07-.82-.07-2.77 0-5.26.23-7.47.68-2.2.45-4.13 1.12-5.75 2.01C9.8 4.08 8.94 4.7 8.2 5.4a10.33 10.33 0 0 0-2.9 4.77 18.6 9.78 0 0 0 18.56 9.22 18.6 9.78 0 0 0 18.45-8.63z" opacity=".6" fill="url(#g)"/><path d="M31.94 41.73a53.76 53.76 0 0 0 4.68-6.11 69.6 69.6 0 0 0 4.46-8.17c.42-.94.74-1.96 1.12-2.95L24.5 6.8l-1.45 18.21 4.17 5.04-3.72 3.25z" fill="url(#h)" opacity=".5"/><path d="M22.45 6.05a3.31 3.31 0 0 1 .53 0 2.19 2.19 0 0 1 1.99 2.39c0 5.5.53 10.87.66 16.24l-2.58.33c-1.2-5.5-1.6-11.07-2.72-16.7v-.4c0-.93 1-1.8 2.12-1.86zm2.39 23h.6c.66 0 1.38.4 1.78 1 .93 1.26.33 3.18-1 3.7-1.45.67-3.37-.39-3.5-1.98a2.52 2.52 0 0 1 .72-2.05c.4-.47.87-.67 1.4-.67z" stroke-width=".57" fill="#fff"/></svg>

<?xml version="1.0" encoding="UTF-8" standalone="no"?>
<svg
   xmlns:dc="http://purl.org/dc/elements/1.1/"
   xmlns:cc="http://creativecommons.org/ns#"
   xmlns:rdf="http://www.w3.org/1999/02/22-rdf-syntax-ns#"
   xmlns:svg="http://www.w3.org/2000/svg"
   xmlns="http://www.w3.org/2000/svg"
   xmlns:xlink="http://www.w3.org/1999/xlink"
   xmlns:sodipodi="http://sodipodi.sourceforge.net/DTD/sodipodi-0.dtd"
   xmlns:inkscape="http://www.inkscape.org/namespaces/inkscape"
   width="48"
   height="48"
   version="1.1"
   id="svg36"
   sodipodi:docname="empathy.svg"
   inkscape:version="0.92.4 (5da689c313, 2019-01-14)">
  <metadata
     id="metadata40">
    <rdf:RDF>
      <cc:Work
         rdf:about="">
        <dc:format>image/svg+xml</dc:format>
        <dc:type
           rdf:resource="http://purl.org/dc/dcmitype/StillImage" />
        <dc:title></dc:title>
      </cc:Work>
    </rdf:RDF>
  </metadata>
  <sodipodi:namedview
     pagecolor="#ffffff"
     bordercolor="#666666"
     borderopacity="1"
     objecttolerance="10"
     gridtolerance="10"
     guidetolerance="10"
     inkscape:pageopacity="0"
     inkscape:pageshadow="2"
     inkscape:window-width="1112"
     inkscape:window-height="480"
     id="namedview38"
     showgrid="false"
     inkscape:zoom="4.9166667"
     inkscape:cx="2.1355932"
     inkscape:cy="24"
     inkscape:window-x="0"
     inkscape:window-y="25"
     inkscape:window-maximized="0"
     inkscape:current-layer="svg36" />
  <defs
     id="defs26">
    <linearGradient
       id="e">
      <stop
         offset="0"
         id="stop2" />
      <stop
         offset="1"
         stop-opacity="0"
         id="stop4" />
    </linearGradient>
    <linearGradient
       id="d">
      <stop
         offset="0"
         stop-color="#d5f6ff"
         id="stop7" />
      <stop
         offset="1"
         stop-color="#214478"
         id="stop9" />
    </linearGradient>
    <linearGradient
       id="a">
      <stop
         offset="0"
         stop-color="#afc6e9"
         id="stop12" />
      <stop
         offset="1"
         stop-color="#afe9c6"
         stop-opacity=".06"
         id="stop14" />
    </linearGradient>
    <linearGradient
       id="c">
      <stop
         offset="0"
         stop-color="#afc6e9"
         id="stop17" />
      <stop
         offset="1"
         stop-color="#214478"
         id="stop19" />
    </linearGradient>
    <linearGradient
       xlink:href="#a"
       id="g"
       x1="4.3"
       y1="-.15"
       x2="4.3"
       y2="15.84"
       gradientUnits="userSpaceOnUse"
       gradientTransform="matrix(0.94874,0,0,0.94874,1.22,0.52)" />
    <linearGradient
       xlink:href="#c"
       id="b"
       gradientUnits="userSpaceOnUse"
       gradientTransform="translate(60)"
       x1="24.86"
       y1=".43"
       x2="8.39"
       y2="43.59" />
    <radialGradient
       xlink:href="#d"
       id="f"
       cx="49.08"
       cy="24.33"
       fx="49.08"
       fy="24.33"
       r="20.2"
       gradientTransform="matrix(1,0,0,1.16394,-20,-3.91)"
       gradientUnits="userSpaceOnUse" />
    <linearGradient
       xlink:href="#e"
       id="h"
       gradientUnits="userSpaceOnUse"
       x1="15.54"
       y1="20.59"
       x2="47.93"
       y2="33.11" />
  </defs>
  <path
     d="M 24,0.35 C 18.17,0.35 13.48,1.3 10.07,3.19 5.97,5.45 3.8,9.07 3.8,13.64 c 0,6.17 5.8,14.4 7.58,16.77 a 48.13,48.13 0 0 0 6.25,6.96 c 2.54,2.25 4.57,3.3 6.37,3.3 0.27,0 0.58,0.08 0.86,0.03 v 6.67 c 1.6,-0.31 3.35,-1.34 5.5,-3.6 2,-2.07 4.23,-4.96 6.26,-8.15 C 38.4,32.82 44.2,23.18 44.2,15.95 44.2,10.58 42.04,6.34 37.94,3.68 34.7,1.59 30.26,0.56 24.86,0.44 V 0.43 C 24.55,0.43 24.32,0.35 24,0.35 Z"
     id="path28"
     style="fill:url(#f)"
     inkscape:connector-curvature="0" />
  <path
     d="M 42.31,10.75 C 42.11,10.11 41.94,9.45 41.64,8.87 A 12.25,12.25 0 0 0 37.21,4 C 36.45,3.5 35.61,3.07 34.71,2.7 A 20.4,20.4 0 0 0 31.78,1.76 C 29.7,1.26 27.37,0.98 24.81,0.93 V 0.92 c -0.3,0 -0.52,-0.07 -0.82,-0.07 -2.77,0 -5.26,0.23 -7.47,0.68 -2.2,0.45 -4.13,1.12 -5.75,2.01 C 9.8,4.08 8.94,4.7 8.2,5.4 a 10.33,10.33 0 0 0 -2.9,4.77 18.6,9.78 0 0 0 18.56,9.22 18.6,9.78 0 0 0 18.45,-8.63 z"
     id="path30"
     style="opacity:0.6;fill:url(#g)"
     inkscape:connector-curvature="0" />
  <path
     d="m 31.94,41.73 a 53.76,53.76 0 0 0 4.68,-6.11 69.6,69.6 0 0 0 4.46,-8.17 C 41.5,26.51 41.82,25.49 42.2,24.5 L 24.5,6.8 23.05,25.01 27.22,30.05 23.5,33.3 Z"
     id="path32"
     style="opacity:0.5;fill:url(#h)"
     inkscape:connector-curvature="0" />
  <path
     d="m 22.45,6.05 a 3.31,3.31 0 0 1 0.53,0 2.19,2.19 0 0 1 1.99,2.39 c 0,5.5 0.53,10.87 0.66,16.24 l -2.58,0.33 c -1.2,-5.5 -1.6,-11.07 -2.72,-16.7 v -0.4 c 0,-0.93 1,-1.8 2.12,-1.86 z m 2.39,23 h 0.6 c 0.66,0 1.38,0.4 1.78,1 0.93,1.26 0.33,3.18 -1,3.7 -1.45,0.67 -3.37,-0.39 -3.5,-1.98 a 2.52,2.52 0 0 1 0.72,-2.05 c 0.4,-0.47 0.87,-0.67 1.4,-0.67 z"
     id="path34"
     inkscape:connector-curvature="0"
     style="fill:#ffffff;stroke-width:0.56999999" />
</svg>
